X: 1469
T: Nevâ Seyir
C: Şefik Gürmeriç
O: Turkey
F: http://compmusic.upf.edu/node/140
N: neva--seyir--sofyan--1--sefik_gurmeric
N: makam= neva
N: form= seyir
N: usul= sofyan = 4/4
M: 4/4
L: 1/16
K: C _2/4B ^3/4f  
Q: 1/4=60
%%MIDI tuningsystem comma53
c4 d4 d4 e4  | d4 c4 c4 B4  | z2g2 f2g2 f3e d4  | \
w:   |   |   | 
ede=f e2d2 d8  | 
w:   | 
d4 e4 f4 g4  | a2g2 f4 g4 a4  | z2c'2 b2a2 a2g2 g2f2  | \
w:   |   |   | 
a2g2 f2^e2 f8  | 
w:   | 
z4 e2f2 g4 f2e2  | a2g2 =f2e2 d2cB ^3/4fef2  | \
w:   |   | 
z2g2 =f2e2 d4 c2B2  | 
w:   | 
c2d2 e2ed d8  | z4 c2d2 c4 d4  | e2de d2c2 d4 e4  | \
w:   |   |   | 
g2=f2 e2d2 e2d2 c2B2  | 
w:   | 
d2cB c2d2 cedc c4  | z4 d2e2 f4 g2a2  | \
w:   |   | 
g2f2 e2d2 c2e2 d2c2  | 
w:   | 
d2c4B2 B2A2 A4  | G4 A4 A8  | |


